src/assets/img/icons/dark/icon-logo.svg

<svg width="51" height="31" viewBox="0 0 51 31" fill="none" xmlns="http://www.w3.org/2000/svg">
<path d="M27.053 25.6482C27.7043 27.1629 28.2554 28.1726 28.6061 28.627C29.3576 29.5863 30.3094 30.0912 31.4617 30.0912V30.9495H19.889V30.0912C22.0432 29.9397 23.0953 29.4349 23.0953 28.5765C23.0953 27.9202 22.6945 26.7085 21.943 24.9414L14.3782 6.56352L7.56483 23.1238C6.46268 25.7492 5.91159 27.4153 5.91159 28.2231C5.91159 29.4349 6.96365 30.0407 9.01768 30.0912V30.9495H0V30.0912C1.00197 29.9397 1.80354 29.5358 2.35461 28.93C3.15619 28.0717 4.30844 25.7997 5.8615 22.114L15.1297 0H16.0314L27.053 25.6482Z" fill="#53BDA0"/>
<path d="M41.9821 0.858307V0H50.9497V0.858307C49.9477 1.00977 49.1461 1.41368 48.5951 2.01954C47.7935 2.87785 46.6412 5.14984 45.0882 8.8355L35.8701 30.9495H34.9683L23.8966 5.35179C23.2454 3.83713 22.6943 2.82736 22.3436 2.37296C21.5921 1.36319 20.6903 0.908794 19.5381 0.858307V0H31.1108V0.858307C28.9566 1.00977 27.9045 1.51466 27.9045 2.37296C27.9045 3.02932 28.3053 4.24104 29.0567 6.00814L36.6216 24.386L43.4349 7.87622C44.5371 5.25081 45.0882 3.58469 45.0882 2.77687C45.0882 1.56515 44.0361 0.908794 41.9821 0.858307Z" fill="#53BDA0"/>
</svg>

<svg xmlns="http://www.w3.org/2000/svg" width="51" height="31" fill="none"><path fill="#53BDA0" d="M27.05 25.65a15.9 15.9 0 001.56 2.98 3.5 3.5 0 002.85 1.46v.86H19.9v-.86c2.15-.15 3.2-.66 3.2-1.51 0-.66-.4-1.87-1.15-3.64L14.38 6.56 7.56 23.12c-1.1 2.63-1.65 4.3-1.65 5.1 0 1.21 1.05 1.82 3.1 1.87v.86H0v-.86c1-.15 1.8-.55 2.35-1.16.8-.86 1.96-3.13 3.51-6.82L15.13 0h.9l11.02 25.65zM41.98.86V0h8.97v.86c-1 .15-1.8.55-2.35 1.16-.8.86-1.96 3.13-3.51 6.82l-9.22 22.1h-.9L23.9 5.36a15.89 15.89 0 00-1.56-2.98 3.47 3.47 0 00-2.8-1.51V0H31.1v.86c-2.15.15-3.2.65-3.2 1.51 0 .66.4 1.87 1.15 3.64l7.56 18.38 6.81-16.51c1.1-2.63 1.66-4.3 1.66-5.1 0-1.21-1.05-1.87-3.1-1.92z"/></svg>
